Sources/FrostedUI/Resources/Icons.xcassets/tShirt32.imageset/t-shirt-32.svg

<svg width="32" height="32" viewBox="0 0 32 32" fill="none" xmlns="http://www.w3.org/2000/svg" data-fui-icon="true">
  <path
    d="M11.1445 2.53613C11.341 2.47269 11.5565 2.49314 11.7393 2.59473C11.9479 2.71085 12.0893 2.91933 12.1191 3.15625C12.1196 3.15964 12.1205 3.16661 12.1221 3.17676C12.1253 3.19721 12.1318 3.23073 12.1406 3.27539C12.1584 3.36508 12.1882 3.49882 12.2363 3.66113C12.3336 3.98869 12.5 4.42035 12.7725 4.8457C13.2998 5.66862 14.2357 6.5 16 6.5C17.7643 6.49999 18.7003 5.66861 19.2275 4.8457C19.5 4.42035 19.6664 3.98869 19.7637 3.66113C19.8118 3.49883 19.8416 3.36507 19.8594 3.27539C19.8682 3.23074 19.8747 3.19721 19.8779 3.17676C19.8795 3.16661 19.8804 3.15964 19.8809 3.15625C19.9107 2.91932 20.052 2.71085 20.2607 2.59473C20.4696 2.47864 20.7214 2.46854 20.9385 2.56836L30.875 7.1377C31.773 7.55057 32.1512 8.62443 31.71 9.50879L29.4307 14.0771C29.0488 14.8424 28.1693 15.2194 27.3516 14.9688L26 14.5537V27.75C26 28.7165 25.2165 29.5 24.25 29.5H7.75C6.7835 29.5 6 28.7165 6 27.75V14.5537L4.64844 14.9688C3.83072 15.2194 2.95125 14.8424 2.56934 14.0771L0.290039 9.50879C-0.151231 8.62441 0.227015 7.55056 1.125 7.1377L11.0615 2.56836L11.1445 2.53613ZM21.1289 4.30664C20.9976 4.6967 20.7988 5.17409 20.4912 5.6543C19.7372 6.83126 18.3604 7.99999 16 8C13.6395 8 12.2628 6.83126 11.5088 5.6543C11.2011 5.17396 11.0014 4.69676 10.8701 4.30664L1.75098 8.5C1.62288 8.55903 1.56893 8.71262 1.63184 8.83887L3.91113 13.4072C3.96561 13.5164 4.09134 13.5706 4.20801 13.5352L6.53027 12.8232C6.75769 12.7535 7.00503 12.7951 7.19629 12.9365C7.38752 13.0779 7.49999 13.3022 7.5 13.54V27.75C7.5 27.8881 7.61193 28 7.75 28H24.25C24.388 28 24.5 27.8881 24.5 27.75V13.54C24.5 13.3022 24.6125 13.0779 24.8037 12.9365C24.995 12.7951 25.2423 12.7535 25.4697 12.8232L27.792 13.5352C27.9087 13.5706 28.0344 13.5164 28.0889 13.4072L30.3682 8.83887C30.431 8.71263 30.3771 8.55904 30.249 8.5L21.1289 4.30664Z"
    fill="currentColor"
  />
</svg>

<svg xmlns="http://www.w3.org/2000/svg" width="32" height="32" fill="none" data-fui-icon="true" viewBox="0 0 32 32"><path fill="currentColor" d="M11.145 2.536a.75.75 0 0 1 .974.62l.003.02.019.1a4.706 4.706 0 0 0 .632 1.57C13.3 5.669 14.236 6.5 16 6.5s2.7-.831 3.227-1.654a4.7 4.7 0 0 0 .65-1.67l.004-.02a.75.75 0 0 1 1.058-.588l9.936 4.57a1.75 1.75 0 0 1 .835 2.37l-2.28 4.57a1.75 1.75 0 0 1-2.078.89L26 14.555V27.75a1.75 1.75 0 0 1-1.75 1.75H7.75A1.75 1.75 0 0 1 6 27.75V14.554l-1.352.415a1.75 1.75 0 0 1-2.079-.892L.29 9.51a1.75 1.75 0 0 1 .835-2.371l9.937-4.57zm9.984 1.77c-.131.39-.33.868-.638 1.348C19.737 6.831 18.361 8 16 8s-3.737-1.169-4.491-2.346a6 6 0 0 1-.639-1.347L1.751 8.5a.25.25 0 0 0-.12.339l2.28 4.568a.25.25 0 0 0 .297.128l2.322-.712a.75.75 0 0 1 .97.717v14.21c0 .138.112.25.25.25h16.5a.25.25 0 0 0 .25-.25V13.54a.75.75 0 0 1 .97-.717l2.322.712a.25.25 0 0 0 .297-.128l2.28-4.568a.25.25 0 0 0-.12-.339z"/></svg>
